src/assets/images/mobile/logoIcon.svg

<svg width="54" height="73" viewBox="0 0 54 73" fill="none" xmlns="http://www.w3.org/2000/svg">
<g opacity="0.87">
<g opacity="0.37">
<ellipse cx="13.9063" cy="45.5903" rx="13.9063" ry="13.473" fill="#B2E4EB" fill-opacity="0.78"/>
<ellipse cx="40.0937" cy="45.5903" rx="13.9064" ry="13.473" fill="#B2E4EB" fill-opacity="0.78"/>
<ellipse cx="16.9764" cy="62.5628" rx="9.93311" ry="9.62356" fill="#B2E4EB" fill-opacity="0.78"/>
<ellipse cx="36.1205" cy="62.5628" rx="9.93311" ry="9.62356" fill="#B2E4EB" fill-opacity="0.78"/>
<rect x="18.6019" y="44.8904" width="14.6288" height="16.2726" fill="#B2E4EB" fill-opacity="0.78"/>
</g>
<g opacity="0.55">
<ellipse cx="16.3355" cy="47.1252" rx="11.5852" ry="11.001" fill="#B2E4EB" fill-opacity="0.78"/>
<ellipse cx="38.1518" cy="47.1252" rx="11.5851" ry="11.001" fill="#B2E4EB" fill-opacity="0.78"/>
<ellipse cx="18.8933" cy="60.9835" rx="8.27509" ry="7.85784" fill="#B2E4EB" fill-opacity="0.78"/>
<ellipse cx="34.8417" cy="60.9835" rx="8.2751" ry="7.85784" fill="#B2E4EB" fill-opacity="0.78"/>
<rect x="20.2474" y="46.5536" width="12.187" height="13.2869" fill="#B2E4EB" fill-opacity="0.78"/>
</g>
<ellipse cx="18.7648" cy="47.9975" rx="9.26392" ry="8.66778" fill="#7FDEE4"/>
<ellipse cx="36.2099" cy="47.9975" rx="9.26391" ry="8.66777" fill="#7FDEE4"/>
<ellipse cx="20.8099" cy="58.9166" rx="6.61708" ry="6.19126" fill="#7FDEE4"/>
<ellipse cx="33.5631" cy="58.9166" rx="6.61708" ry="6.19126" fill="#7FDEE4"/>
<rect x="21.8928" y="47.5472" width="9.74519" height="10.4689" fill="#7FDEE4"/>
<path d="M30.225 28.1016C30.7214 27.6621 31.0632 27.186 31.2504 26.6733C31.4457 26.1606 31.5433 25.6764 31.5433 25.2207C31.5433 24.708 31.4375 24.2645 31.226 23.8901C31.0225 23.5076 30.7946 23.1781 30.5424 22.9014C30.4284 22.763 30.3715 22.5881 30.3715 22.3765C30.3715 22.1567 30.4325 21.9289 30.5546 21.6929C30.6766 21.4487 30.8353 21.2249 31.0306 21.0215C31.2341 20.818 31.466 20.6512 31.7264 20.521C31.9869 20.3908 32.2595 20.3257 32.5443 20.3257C32.8617 20.3257 33.1262 20.4315 33.3378 20.6431C33.5494 20.8465 33.7203 21.0988 33.8505 21.3999C33.9807 21.701 34.0743 22.0225 34.1312 22.3643C34.1882 22.6979 34.2167 22.995 34.2167 23.2554C34.2167 23.8088 34.119 24.3377 33.9237 24.8423C33.7284 25.355 33.4639 25.8351 33.1302 26.2827C32.8047 26.7303 32.4222 27.1413 31.9828 27.5156C31.5433 27.8981 31.0795 28.2358 30.5912 28.5288L30.225 28.1016Z" fill="#7FDEE4"/>
<path d="M22.9663 28.1016C22.4699 27.6621 22.1281 27.186 21.9409 26.6733C21.7456 26.1606 21.6479 25.6764 21.6479 25.2207C21.6479 24.708 21.7537 24.2645 21.9653 23.8901C22.1688 23.5076 22.3966 23.1781 22.6489 22.9014C22.7629 22.763 22.8198 22.5881 22.8198 22.3765C22.8198 22.1567 22.7588 21.9289 22.6367 21.6929C22.5146 21.4487 22.356 21.2249 22.1606 21.0215C21.9572 20.818 21.7253 20.6512 21.4648 20.521C21.2044 20.3908 20.9318 20.3257 20.647 20.3257C20.3296 20.3257 20.0651 20.4315 19.8535 20.6431C19.6419 20.8465 19.471 21.0988 19.3408 21.3999C19.2106 21.701 19.117 22.0225 19.0601 22.3643C19.0031 22.6979 18.9746 22.995 18.9746 23.2554C18.9746 23.8088 19.0723 24.3377 19.2676 24.8423C19.4629 25.355 19.7274 25.8351 20.061 26.2827C20.3866 26.7303 20.769 27.1413 21.2085 27.5156C21.6479 27.8981 22.1118 28.2358 22.6001 28.5288L22.9663 28.1016Z" fill="#7FDEE4"/>
</g>
</svg>

<svg width="54" height="73" fill="none" xmlns="http://www.w3.org/2000/svg"><g opacity=".87"><g opacity=".37" fill="#B2E4EB" fill-opacity=".78"><ellipse cx="13.906" cy="45.59" rx="13.906" ry="13.473"/><ellipse cx="40.094" cy="45.59" rx="13.906" ry="13.473"/><ellipse cx="16.976" cy="62.563" rx="9.933" ry="9.624"/><ellipse cx="36.12" cy="62.563" rx="9.933" ry="9.624"/><path d="M18.602 44.89h14.629v16.273H18.602z"/></g><g opacity=".55" fill="#B2E4EB" fill-opacity=".78"><ellipse cx="16.335" cy="47.125" rx="11.585" ry="11.001"/><ellipse cx="38.152" cy="47.125" rx="11.585" ry="11.001"/><ellipse cx="18.893" cy="60.983" rx="8.275" ry="7.858"/><ellipse cx="34.842" cy="60.983" rx="8.275" ry="7.858"/><path d="M20.247 46.554h12.187v13.287H20.247z"/></g><ellipse cx="18.765" cy="47.998" rx="9.264" ry="8.668" fill="#7FDEE4"/><ellipse cx="36.21" cy="47.998" rx="9.264" ry="8.668" fill="#7FDEE4"/><ellipse cx="20.81" cy="58.917" rx="6.617" ry="6.191" fill="#7FDEE4"/><ellipse cx="33.563" cy="58.917" rx="6.617" ry="6.191" fill="#7FDEE4"/><path fill="#7FDEE4" d="M21.893 47.547h9.745v10.469h-9.745zM30.225 28.102c.496-.44.838-.916 1.025-1.429.196-.512.293-.997.293-1.452 0-.513-.105-.956-.317-1.33a4.817 4.817 0 0 0-.684-.99.798.798 0 0 1-.17-.524c0-.22.06-.448.183-.684.122-.244.28-.468.476-.672.203-.203.435-.37.695-.5.26-.13.534-.195.818-.195.318 0 .582.105.794.317a2.3 2.3 0 0 1 .512.757c.13.301.224.623.281.964.057.334.086.631.086.891 0 .554-.098 1.083-.293 1.587-.196.513-.46.993-.794 1.44a7.117 7.117 0 0 1-1.147 1.234 9.79 9.79 0 0 1-1.392 1.013l-.366-.427zM22.966 28.102c-.496-.44-.838-.916-1.025-1.429-.195-.512-.293-.997-.293-1.452 0-.513.106-.956.317-1.33.204-.383.432-.713.684-.99a.798.798 0 0 0 .17-.524c0-.22-.06-.448-.182-.684a2.723 2.723 0 0 0-.476-.672 2.655 2.655 0 0 0-.696-.5 1.806 1.806 0 0 0-.818-.195c-.317 0-.582.105-.793.317a2.3 2.3 0 0 0-.513.757c-.13.301-.224.623-.28.964-.058.334-.086.631-.086.891 0 .554.097 1.083.293 1.587.195.513.46.993.793 1.44.326.448.708.86 1.148 1.234.439.382.903.72 1.391 1.013l.366-.427z"/></g></svg>
